Adwaita++-Dark/actions/16/path-mode-polyline.svg

<svg viewBox="0 0 24 24" xmlns="http://www.w3.org/2000/svg">
  <path d="m5 5v3h2.0664062l6.9335938 10.402344v2.597656h3v-3h-2.066406l-6.933594-10.4003906v-.5996094h10v1h3v-3h-3v1h-10v-1zm1 1h1v1h-1zm13 0h1v1h-1zm-4 13h1v1h-1z" fill="#e6ddff"/>
</svg>

<svg xmlns="http://www.w3.org/2000/svg" viewBox="0 0 24 24">
 <defs>
  <style id="current-color-scheme" type="text/css">
   .ColorScheme-Text { color:#E6DDFF; }
  </style>
 </defs>
 <path style="fill:currentColor" class="ColorScheme-Text" d="M 5 5 L 5 8 L 7.0664062 8 L 14 18.402344 L 14 21 L 17 21 L 17 18 L 14.933594 18 L 8 7.5996094 L 8 7 L 18 7 L 18 8 L 21 8 L 21 5 L 18 5 L 18 6 L 8 6 L 8 5 L 5 5 z M 6 6 L 7 6 L 7 7 L 6 7 L 6 6 z M 19 6 L 20 6 L 20 7 L 19 7 L 19 6 z M 15 19 L 16 19 L 16 20 L 15 20 L 15 19 z"/>
</svg>
